cg/copy.svg

<svg viewBox="0 0 24 24" fill="none" xmlns="http://www.w3.org/2000/svg" height="1em" width="1em">
  <path d="M13 7H7V5h6v2Zm0 4H7V9h6v2Zm-6 4h6v-2H7v2Z" fill="currentColor"/>
  <path fill-rule="evenodd" clip-rule="evenodd" d="M3 19V1h14v4h4v18H7v-4H3Zm12-2V3H5v14h10Zm2-10v12H9v2h10V7h-2Z" fill="currentColor"/>
</svg>

<svg viewBox="0 0 24 24" fill="none" xmlns="http://www.w3.org/2000/svg" height="1em" width="1em">
  <path d="M13 7H7V5H13V7Z" fill="currentColor"/>
  <path d="M13 11H7V9H13V11Z" fill="currentColor"/>
  <path d="M7 15H13V13H7V15Z" fill="currentColor"/>
  <path fill-rule="evenodd" clip-rule="evenodd" d="M3 19V1H17V5H21V23H7V19H3ZM15 17V3H5V17H15ZM17 7V19H9V21H19V7H17Z" fill="currentColor"/>
</svg>
